assets/home_modulares_icon.svg

<svg height="120" viewBox="0 0 210 120" width="210" xmlns="http://www.w3.org/2000/svg"><path d="m0 0h210v120h-210z" fill="#435387"/><g fill="#fff" transform="translate(62 13)"><path d="m61.6 55.8v38.2h24.2v-38.2zm18.7 32.7h-13.2v-27.2h13.2s0 27.2 0 27.2z"/><path d="m74.9 49.7v-49.7h-74.9v87.5h53.9v-37.8zm-5.5-5.5h-15.4v-18.4h15.4zm-43.7-38.7h43.7v14.8h-43.7zm-20.2 0h14.7v54.7h-14.7zm43 76.5h-43v-14h43zm0-19.4h-22.8v-36.8h22.8z"/></g></svg>

<svg xmlns="http://www.w3.org/2000/svg" width="210" height="120" viewBox="0 0 210 120">
  <g id="home_modulares_icon" transform="translate(-175 -647)">
    <rect id="Rectángulo_367" data-name="Rectángulo 367" width="210" height="120" transform="translate(175 647)" fill="#435387"/>
    <g id="Grupo_25" data-name="Grupo 25" transform="translate(237 660)">
      <path id="Trazado_7" data-name="Trazado 7" d="M61.6,55.8V94H85.8V55.8ZM80.3,88.5H67.1V61.3H80.3S80.3,88.5,80.3,88.5Z" fill="#fff"/>
      <path id="Trazado_8" data-name="Trazado 8" d="M74.9,49.7V0H0V87.5H53.9V49.7Zm-5.5-5.5H54V25.8H69.4ZM25.7,5.5H69.4V20.3H25.7ZM5.5,5.5H20.2V60.2H5.5ZM48.5,82H5.5V68h43Zm0-19.4H25.7V25.8H48.5V62.6Z" fill="#fff"/>
    </g>
  </g>
</svg>
